packages/core/src/svgs/tokens/branded/SBTC.svg

<svg width="24" height="24" viewBox="0 0 24 24" fill="none" xmlns="http://www.w3.org/2000/svg">
<path d="M11.9999 17.0001C14.7614 17.0001 17 14.7616 17 12.0001C17 9.23874 14.7614 7.00012 11.9999 7.00012C9.23859 7.00012 7 9.23874 7 12.0001C7 14.7616 9.23859 17.0001 11.9999 17.0001Z" fill="#F08619"/>
<path d="M9.5 14.5V9.5H13.1225C14.0038 9.5 14.4994 10.3312 14.4994 10.9957C14.4994 11.5275 14.27 11.8644 14.1557 11.9656C14.4306 12.2425 14.4994 12.7457 14.4994 12.9625C14.5219 13.9157 13.7144 14.5 13.2739 14.5H9.5Z" fill="white"/>
<path d="M11.9999 22C17.5231 22 22 17.5231 22 11.9999C22 10.1788 21.5125 8.4706 20.6624 6.99998H15.7512C16.5277 7.58155 17.1579 8.33618 17.5916 9.2039C18.0253 10.0716 18.2508 11.0286 18.2499 11.9988C18.2499 15.4469 15.4569 18.2425 12.01 18.2474L12.0144 18.2499H4.19312C5.12918 19.4212 6.31709 20.3665 7.66862 21.0158C9.02017 21.665 10.5006 22.0013 11.9999 22ZM3.3375 17C2.45857 15.4804 1.99714 13.7553 2.00001 11.9999C2.00001 6.47687 6.47686 2 11.9999 2C13.4992 1.99865 14.9796 2.33507 16.331 2.98427C17.6824 3.63346 18.8703 4.57878 19.8062 5.74999H11.9999C8.54811 5.74999 5.75 8.54747 5.75 11.9988C5.74921 12.9696 5.97504 13.9273 6.40947 14.7954C6.84391 15.6637 7.47498 16.4185 8.25249 17H3.3375Z" fill="#4E4294"/>
<path d="M13.0794 10.75H10.75V11.3749H13.0794C13.1355 11.3568 13.25 11.2712 13.25 11.073C13.25 10.875 13.1363 10.7749 13.0794 10.75ZM13.0794 12.625H10.75V13.25H13.0794C13.1355 13.2318 13.25 13.1462 13.25 12.9481C13.25 12.75 13.1363 12.6499 13.0794 12.625Z" fill="#F08619"/>
</svg>

<svg xmlns="http://www.w3.org/2000/svg" width="24" height="24" fill="none" viewBox="0 0 24 24">
    <path fill="#F08619" d="M12 17a5 5 0 1 0 0-10 5 5 0 0 0 0 10"/>
    <path fill="#fff" d="M9.5 14.5v-5h3.623c.88 0 1.376.831 1.376 1.496 0 .531-.229.868-.343.97.275.277.343.78.343.997.023.953-.785 1.537-1.225 1.537z"/>
    <path fill="#4E4294" d="M12 22c5.523 0 10-4.477 10-10 0-1.821-.488-3.53-1.338-5h-4.91a6.24 6.24 0 0 1 2.498 4.999 6.25 6.25 0 0 1-6.24 6.248l.004.003h-7.82A9.98 9.98 0 0 0 12 22m-8.662-5A9.95 9.95 0 0 1 2 12C2 6.477 6.477 2 12 2a9.98 9.98 0 0 1 7.806 3.75H12A6.25 6.25 0 0 0 8.252 17z"/>
    <path fill="#F08619" d="M13.08 10.75h-2.33v.625h2.33c.056-.018.17-.104.17-.302s-.114-.298-.17-.323m0 1.875h-2.33v.625h2.33c.056-.018.17-.104.17-.302s-.114-.298-.17-.323"/>
</svg>
